resources/svg/wand-o.svg

<svg xmlns="http://www.w3.org/2000/svg" viewBox="0 0 15 15" fill="none"><path d="M6.85344 8.84842L7.20711 8.49498L6.50023 7.78764L6.14656 8.14108L6.85344 8.84842ZM9 10.4935V10.9935H10V10.4935H9ZM10 9.49414V8.99414H9V9.49414H10ZM9 1.49939V1.99939H10V1.49939H9ZM10 0.5V0H9V0.5H10ZM4.5 4.99683H4V5.99683H4.5V4.99683ZM5.5 5.99683H6V4.99683H5.5V5.99683ZM13.5 4.99683H13V5.99683H13.5V4.99683ZM14.5 5.99683H15V4.99683H14.5V5.99683ZM12.1466 2.14512L11.7929 2.49856L12.4998 3.20589L12.8534 2.85244L12.1466 2.14512ZM13.8534 1.85305L14.2071 1.49961L13.5002 0.792283L13.1466 1.14573L13.8534 1.85305ZM5.85345 1.14573L5.49978 0.792283L4.79289 1.49961L5.14655 1.85305L5.85345 1.14573ZM6.14655 2.85244L6.50022 3.20589L7.20711 2.49856L6.85345 2.14512L6.14655 2.85244ZM12.8534 8.14109L12.4998 7.78764L11.7929 8.49497L12.1466 8.84841L12.8534 8.14109ZM13.1466 9.8478L13.5002 10.2012L14.2071 9.49393L13.8534 9.14048L13.1466 9.8478ZM0.853438 14.8445L6.85344 8.84842L6.14656 8.14108L0.146562 14.1372L0.853438 14.8445ZM10 10.4935V9.49414H9V10.4935H10ZM10 1.49939V0.5H9V1.49939H10ZM4.5 5.99683H5.5V4.99683H4.5V5.99683ZM13.5 5.99683H14.5V4.99683H13.5V5.99683ZM12.8534 2.85244L13.8534 1.85305L13.1466 1.14573L12.1466 2.14512L12.8534 2.85244ZM5.14655 1.85305L6.14655 2.85244L6.85345 2.14512L5.85345 1.14573L5.14655 1.85305ZM12.1466 8.84841L13.1466 9.8478L13.8534 9.14048L12.8534 8.14109L12.1466 8.84841Z" fill="black"/></svg>

<svg xmlns="http://www.w3.org/2000/svg" viewBox="0 0 15 15" fill="none"><path d="M6.853 8.848l.354-.353-.707-.707-.353.353.706.707zM9 10.493v.5h1v-.5H9zm1-.999v-.5H9v.5h1zM9 1.5V2h1v-.5H9zm1-1V0H9v.5h1zM4.5 4.997H4v1h.5v-1zm1 1H6v-1h-.5v1zm8-1H13v1h.5v-1zm1 1h.5v-1h-.5v1zm-2.353-3.852l-.354.354.707.707.353-.354-.706-.707zm1.706-.292l.354-.353L13.5.792l-.353.354.706.707zm-8-.707L5.5.792l-.707.708.354.353.706-.707zm.294 1.706l.353.354.707-.707-.354-.354-.706.707zm6.706 5.29l-.353-.354-.707.707.354.353.706-.707zm.294 1.706l.353.353.707-.707-.354-.354-.706.708zM.853 14.844l6-5.996-.706-.707-6 5.996.706.707zM10 10.495v-1H9v1h1zM10 1.5v-1H9v1h1zM4.5 5.997h1v-1h-1v1zm9 0h1v-1h-1v1zm-.647-3.145l1-.999-.706-.707-1 1 .706.706zm-7.706-.999l1 1 .706-.708-1-1-.706.708zm7 6.995l1 1 .706-.708-1-.999-.706.707z" fill="currentColor"/></svg>
